src/images_karasa_jaga_svg/cmd/sc_insertpagebreak.svg

<svg enable-background="new 0 0 128 128" height="16" viewBox="0 0 16 16" width="16" xmlns="http://www.w3.org/2000/svg" xmlns:xlink="http://www.w3.org/1999/xlink"><radialGradient id="a" cx="102" cy="32.3047" fx="102" fy="32.3047" gradientUnits="userSpaceOnUse" r="139.5585" xlink:href="#m"/><radialGradient id="b" cx="102" cy="112.3047" gradientTransform="matrix(.9787234 0 0 .9818182 1.361705 -78.836364)" gradientUnits="userSpaceOnUse" r="139.55859" xlink:href="#l"/><linearGradient id="c" gradientUnits="userSpaceOnUse" x1="85.219681" x2="61.336319" y1="93.219681" y2="69.336319"><stop offset="0"/><stop offset="1" stop-color="#393b38"/></linearGradient><linearGradient id="d" gradientUnits="userSpaceOnUse" x1="96" x2="88.000198" y1="104" y2="96.000198"><stop offset="0" stop-color="#888a85"/><stop offset=".0072" stop-color="#8c8e89"/><stop offset=".0673" stop-color="#abaca9"/><stop offset=".1347" stop-color="#c5c6c4"/><stop offset=".2115" stop-color="#dbdbda"/><stop offset=".3012" stop-color="#ebebeb"/><stop offset=".4122" stop-color="#f7f7f6"/><stop offset=".5679" stop-color="#fdfdfd"/><stop offset="1" stop-color="#fff"/></linearGradient><radialGradient id="e" cx="102" cy="194.3047" fx="102" fy="194.3047" gradientUnits="userSpaceOnUse" r="139.5585" xlink:href="#m"/><radialGradient id="f" cx="102" cy="112.3047" gradientTransform="matrix(.9787234 0 0 .9818182 1.361705 83.163636)" gradientUnits="userSpaceOnUse" r="139.55859" xlink:href="#l"/><linearGradient id="g"><stop offset="0" stop-color="#06f"/><stop offset="1" stop-color="#80b3ff"/></linearGradient><linearGradient id="h" gradientUnits="userSpaceOnUse" x1="8" x2="8" xlink:href="#g" y1="88" y2="40"/><linearGradient id="i" gradientUnits="userSpaceOnUse" x1="112" x2="112" xlink:href="#g" y1="72" y2="40"/><linearGradient id="j" gradientUnits="userSpaceOnUse" x1="88" x2="88" xlink:href="#g" y1="72" y2="40"/><linearGradient id="k" gradientUnits="userSpaceOnUse" x1="56" x2="56" xlink:href="#g" y1="72" y2="40"/><radialGradient id="l" cx="102" cy="112.3047" gradientTransform="matrix(.9787234 0 0 .9818182 1.361705 1.163636)" gradientUnits="userSpaceOnUse" r="139.55859"><stop offset="0" stop-color="#535557"/><stop offset=".11366145" stop-color="#898a8c"/><stop offset=".20296688" stop-color="#ececec"/><stop offset=".2363" stop-color="#fafafa"/><stop offset=".2722" stop-color="#fff"/><stop offset=".5313" stop-color="#fafafa"/><stop offset=".8449" stop-color="#ebecec"/><stop offset="1" stop-color="#e1e2e3"/></radialGradient><radialGradient id="m" cx="102" cy="112.3047" gradientUnits="userSpaceOnUse" r="139.5585"><stop offset="0" stop-color="#00537d"/><stop offset=".0151" stop-color="#186389"/><stop offset=".0558" stop-color="#558ca8"/><stop offset=".0964" stop-color="#89afc3"/><stop offset=".1357" stop-color="#b3ccd8"/><stop offset=".1737" stop-color="#d4e2e9"/><stop offset=".2099" stop-color="#ecf2f5"/><stop offset=".2435" stop-color="#fafcfd"/><stop offset=".2722" stop-color="#fff"/></radialGradient><filter id="n"><feGaussianBlur stdDeviation="1.0394514"/></filter><filter id="o"><feGaussianBlur stdDeviation=".50063244"/></filter><filter id="p"><feGaussianBlur stdDeviation=".4901192"/></filter><filter id="q"><feGaussianBlur stdDeviation=".90565481"/></filter><filter id="r" height="1.247155" width="1.247155" x="-.123577" y="-.123577"><feGaussianBlur stdDeviation="1.7720846"/></filter><g transform="matrix(.125 0 0 .125 0 .0125)"><g><g stroke-width="1.038686"><path d="m16 90v38h96v-38z" filter="url(#o)" opacity=".89589"/><path d="m14 89 .01367 39h99.98633v-39z" filter="url(#n)" opacity=".835616"/><path d="m14 88 .01563 40h99.98437v-40z" filter="url(#n)" opacity=".715069"/></g><path d="m16 90v38h96v-38z" fill="url(#e)"/><path d="m24.679688 98c-.539277 0-.980469.44144-.980469.982422l.09375 29.017578h80.207031v-29.017578c0-.540982-.43827-.982422-.97852-.982422z" fill="url(#f)"/></g><g><g stroke-width="1.038686"><path d="m16 0v40h61.121094c.552083 0 1.082031-.219029 1.472656-.607422l32.79492-32.9003905c.39063-.3883929.61133-.9159152.61133-1.4648437v-5.0273438z" filter="url(#o)" opacity=".89589"/><path d="m14.027344 0 .01563 42h63.677734c.552083 0 1.082031-.219029 1.472656-.607422l34.195306-33.9999999c.39063-.3883928.61133-.9159151.61133-1.4648437v-5.9277344z" filter="url(#n)" opacity=".715069"/><path d="m14.027344 0 .01563 42h63.677734c.552083 0 1.082031-.219029 1.472656-.607422 13.850955-8.503846 25.146206-19.955548 34.195306-33.9999999.39063-.3883928.61133-.9159151.61133-1.4648437v-5.9277344z" filter="url(#n)" opacity=".835616"/></g><path d="m16 0v40h61.171875c.53 0 1.039063-.210938 1.414063-.585938l32.828122-32.8281245c.375-.375.58594-.8840625.58594-1.4140625v-5.171875z" fill="url(#a)"/><path d="m23.900391 0 .099609 31.017578c0 .54197.43924.982422.978516.982422h51.914062c.257404 0 .509364-.103509.691406-.287109l26.128906-26.2324222c.18303-.1836001.28711-.4351414.28711-.6933594v-4.7871094z" fill="url(#b)"/><g transform="translate(.000002 -80)"><path d="m111.414 86.586c.25-.25-26.379-1.586-31.414-1.586-1.654 0-3 1.346-3 3 0 5.035 1.336 31.664 1.586 31.414z" filter="url(#r)" opacity=".906849"/><path d="m111.414 86.586c.375-.375-21.97-.586-31.414-.586-1.103 0-2 .897-2 2 0 9.444.211 31.789.586 31.414z" filter="url(#q)" opacity=".2"/><path d="m111.414 86.586c.239-.239-21.607.414-31.414.414-.553 0-1 .447-1 1 0 9.807-.653 31.653-.414 31.414z" fill="url(#c)" filter="url(#p)" opacity=".1"/><path d="m78.586 119.414s11.914-9.914 17.414-15.414 15.414-17.414 15.414-17.414-21.164 1.414-31.414 1.414c0 10.25-1.414 31.414-1.414 31.414z" fill="url(#d)"/></g></g><g><path d="m32 64c-8.376698 5.43954-23.6233029 18.560459-32 24v-48c8.3766972 5.439541 23.623303 18.560459 32 24z" fill="url(#h)"/><path d="m40 56h24v16h-24z" fill="url(#k)"/><path d="m72 56h24v16h-24z" fill="url(#j)"/><path d="m104 56h24v16h-24z" fill="url(#i)"/><path d="m8 56.052734v15.894532c3.497188-2.745361 6.765701-5.232021 10.330078-7.947266-3.564377-2.715245-6.83289-5.201905-10.330078-7.947266z" fill="#bfd9ff"/></g></g></svg>

<?xml version="1.0" encoding="UTF-8" standalone="no"?>
<svg
   xmlns:dc="http://purl.org/dc/elements/1.1/"
   xmlns:cc="http://creativecommons.org/ns#"
   xmlns:rdf="http://www.w3.org/1999/02/22-rdf-syntax-ns#"
   xmlns:svg="http://www.w3.org/2000/svg"
   xmlns="http://www.w3.org/2000/svg"
   xmlns:xlink="http://www.w3.org/1999/xlink"
   xmlns:sodipodi="http://sodipodi.sourceforge.net/DTD/sodipodi-0.dtd"
   xmlns:inkscape="http://www.inkscape.org/namespaces/inkscape"
   enable-background="new 0 0 128 128"
   height="128"
   viewBox="0 0 128 128"
   width="128"
   version="1.1"
   id="svg2921"
   sodipodi:docname="sc_insertpagebreak.svg"
   inkscape:version="0.92.3 (unknown)"
   inkscape:export-filename="/home/rizmut/Dokumen/Rizmut/Github/libreoffice-style-karasa-jaga/build/images_karasa_jaga/cmd/sc_insertpagebreak.png"
   inkscape:export-xdpi="12"
   inkscape:export-ydpi="12">
  <metadata
     id="metadata2927">
    <rdf:RDF>
      <cc:Work
         rdf:about="">
        <dc:format>image/svg+xml</dc:format>
        <dc:type
           rdf:resource="http://purl.org/dc/dcmitype/StillImage" />
        <dc:title />
      </cc:Work>
    </rdf:RDF>
  </metadata>
  <defs
     id="defs2925">
    <radialGradient
       inkscape:collect="always"
       xlink:href="#d"
       id="radialGradient2760"
       gradientUnits="userSpaceOnUse"
       cx="102.000002"
       cy="112.3047"
       r="139.5585"
       gradientTransform="translate(0,-80)" />
    <radialGradient
       inkscape:collect="always"
       xlink:href="#c"
       id="radialGradient2762"
       gradientUnits="userSpaceOnUse"
       gradientTransform="matrix(0.9787234,0,0,0.9818182,1.361705,-78.836364)"
       cx="102"
       cy="112.3047"
       r="139.55859" />
    <linearGradient
       inkscape:collect="always"
       xlink:href="#a"
       id="linearGradient2764"
       gradientUnits="userSpaceOnUse"
       x1="85.219681"
       y1="93.219681"
       x2="61.336319"
       y2="69.336319" />
    <linearGradient
       inkscape:collect="always"
       xlink:href="#b"
       id="linearGradient2766"
       gradientUnits="userSpaceOnUse"
       x1="96"
       y1="104"
       x2="88.0002"
       y2="96.0002" />
    <radialGradient
       inkscape:collect="always"
       xlink:href="#d"
       id="radialGradient2800"
       gradientUnits="userSpaceOnUse"
       cx="102.000002"
       cy="112.3047"
       r="139.5585"
       gradientTransform="translate(0,82)" />
    <radialGradient
       inkscape:collect="always"
       xlink:href="#c"
       id="radialGradient2802"
       gradientUnits="userSpaceOnUse"
       gradientTransform="matrix(0.9787234,0,0,0.9818182,1.361705,83.163636)"
       cx="102"
       cy="112.3047"
       r="139.55859" />
    <linearGradient
       inkscape:collect="always"
       id="linearGradient4372">
      <stop
         style="stop-color:#0066ff;stop-opacity:1;"
         offset="0"
         id="stop4374" />
      <stop
         style="stop-color:#80b3ff;stop-opacity:1"
         offset="1"
         id="stop4376" />
    </linearGradient>
    <linearGradient
       inkscape:collect="always"
       xlink:href="#linearGradient4372"
       id="linearGradient944"
       x1="8"
       y1="88"
       x2="8"
       y2="40"
       gradientUnits="userSpaceOnUse" />
    <linearGradient
       inkscape:collect="always"
       xlink:href="#linearGradient4372"
       id="linearGradient998"
       x1="112"
       y1="72"
       x2="112"
       y2="40"
       gradientUnits="userSpaceOnUse" />
    <linearGradient
       inkscape:collect="always"
       xlink:href="#linearGradient4372"
       id="linearGradient1000"
       x1="88"
       y1="72"
       x2="88"
       y2="40"
       gradientUnits="userSpaceOnUse" />
    <linearGradient
       inkscape:collect="always"
       xlink:href="#linearGradient4372"
       id="linearGradient1002"
       x1="56"
       y1="72"
       x2="56"
       y2="40"
       gradientUnits="userSpaceOnUse" />
  </defs>
  <sodipodi:namedview
     pagecolor="#ffffff"
     bordercolor="#666666"
     borderopacity="1"
     objecttolerance="10"
     gridtolerance="10"
     guidetolerance="10"
     inkscape:pageopacity="0"
     inkscape:pageshadow="2"
     inkscape:window-width="1366"
     inkscape:window-height="706"
     id="namedview2923"
     showgrid="true"
     inkscape:zoom="1.84375"
     inkscape:cx="134.76269"
     inkscape:cy="23.375226"
     inkscape:window-x="0"
     inkscape:window-y="0"
     inkscape:window-maximized="1"
     inkscape:current-layer="svg2921">
    <inkscape:grid
       type="xygrid"
       id="grid2706"
       spacingx="8"
       spacingy="8"
       empspacing="1" />
  </sodipodi:namedview>
  <linearGradient
     id="a"
     gradientUnits="userSpaceOnUse"
     x1="85.219681"
     x2="61.336319"
     y1="93.219681"
     y2="69.336319">
    <stop
       offset="0"
       id="stop2826" />
    <stop
       offset="1"
       stop-color="#393b38"
       id="stop2828" />
  </linearGradient>
  <linearGradient
     id="b"
     gradientUnits="userSpaceOnUse"
     x1="96"
     x2="88.0002"
     y1="104"
     y2="96.0002">
    <stop
       offset="0"
       stop-color="#888a85"
       id="stop2831" />
    <stop
       offset=".0072"
       stop-color="#8c8e89"
       id="stop2833" />
    <stop
       offset=".0673"
       stop-color="#abaca9"
       id="stop2835" />
    <stop
       offset=".1347"
       stop-color="#c5c6c4"
       id="stop2837" />
    <stop
       offset=".2115"
       stop-color="#dbdbda"
       id="stop2839" />
    <stop
       offset=".3012"
       stop-color="#ebebeb"
       id="stop2841" />
    <stop
       offset=".4122"
       stop-color="#f7f7f6"
       id="stop2843" />
    <stop
       offset=".5679"
       stop-color="#fdfdfd"
       id="stop2845" />
    <stop
       offset="1"
       stop-color="#fff"
       id="stop2847" />
  </linearGradient>
  <radialGradient
     id="c"
     cx="102"
     cy="112.3047"
     gradientTransform="matrix(0.9787234,0,0,0.9818182,1.361705,1.163636)"
     gradientUnits="userSpaceOnUse"
     r="139.55859">
    <stop
       offset="0"
       stop-color="#535557"
       id="stop2850" />
    <stop
       offset=".11366145"
       stop-color="#898a8c"
       id="stop2852" />
    <stop
       offset=".20296688"
       stop-color="#ececec"
       id="stop2854" />
    <stop
       offset=".2363"
       stop-color="#fafafa"
       id="stop2856" />
    <stop
       offset=".2722"
       stop-color="#fff"
       id="stop2858" />
    <stop
       offset=".5313"
       stop-color="#fafafa"
       id="stop2860" />
    <stop
       offset=".8449"
       stop-color="#ebecec"
       id="stop2862" />
    <stop
       offset="1"
       stop-color="#e1e2e3"
       id="stop2864" />
  </radialGradient>
  <radialGradient
     id="d"
     cx="102.000002"
     cy="112.3047"
     gradientUnits="userSpaceOnUse"
     r="139.5585">
    <stop
       offset="0"
       stop-color="#00537d"
       id="stop2867" />
    <stop
       offset=".0151"
       stop-color="#186389"
       id="stop2869" />
    <stop
       offset=".0558"
       stop-color="#558ca8"
       id="stop2871" />
    <stop
       offset=".0964"
       stop-color="#89afc3"
       id="stop2873" />
    <stop
       offset=".1357"
       stop-color="#b3ccd8"
       id="stop2875" />
    <stop
       offset=".1737"
       stop-color="#d4e2e9"
       id="stop2877" />
    <stop
       offset=".2099"
       stop-color="#ecf2f5"
       id="stop2879" />
    <stop
       offset=".2435"
       stop-color="#fafcfd"
       id="stop2881" />
    <stop
       offset=".2722"
       stop-color="#fff"
       id="stop2883" />
  </radialGradient>
  <filter
     id="e">
    <feGaussianBlur
       stdDeviation="1.0394514"
       id="feGaussianBlur2886" />
  </filter>
  <filter
     id="f">
    <feGaussianBlur
       stdDeviation=".50063244"
       id="feGaussianBlur2889" />
  </filter>
  <filter
     id="g">
    <feGaussianBlur
       stdDeviation=".4901192"
       id="feGaussianBlur2892" />
  </filter>
  <filter
     id="h">
    <feGaussianBlur
       stdDeviation=".90565481"
       id="feGaussianBlur2895" />
  </filter>
  <filter
     id="i"
     height="1.247155"
     width="1.247155"
     x="-.123577"
     y="-.123577">
    <feGaussianBlur
       stdDeviation="1.7720846"
       id="feGaussianBlur2898" />
  </filter>
  <g
     id="g2897">
    <g
       id="g2867">
      <path
         style="opacity:0.89589;stroke-width:1.03868628;filter:url(#f)"
         d="M 16 90 L 16 128 L 112 128 L 112 90 L 16 90 z "
         id="path2903" />
      <path
         style="opacity:0.83561599;stroke-width:1.03868628;filter:url(#e)"
         d="M 14 89 L 14.013672 128 L 114 128 L 114 89 L 14 89 z "
         id="path2905" />
      <path
         style="opacity:0.71506898;stroke-width:1.03868628;filter:url(#e)"
         d="M 14 88 L 14.015625 128 L 114 128 L 114 88 L 14 88 z "
         id="path2901" />
      <path
         style="fill:url(#radialGradient2800)"
         d="M 16 90 L 16 128 L 112 128 L 112 90 L 16 90 z "
         id="path2907" />
      <path
         style="fill:url(#radialGradient2802)"
         d="M 24.679688 98 C 24.140411 98 23.699219 98.44144 23.699219 98.982422 L 23.792969 128 L 104 128 L 104 98.982422 C 104 98.44144 103.56173 98 103.02148 98 L 24.679688 98 z "
         id="path2909" />
    </g>
    <g
       id="g2860">
      <path
         style="opacity:0.89589;stroke-width:1.03868628;filter:url(#f)"
         d="M 16 0 L 16 40 L 77.121094 40 C 77.673177 40 78.203125 39.780971 78.59375 39.392578 L 111.38867 6.4921875 C 111.7793 6.1037946 112 5.5762723 112 5.0273438 L 112 0 L 16 0 z "
         id="path2740" />
      <path
         style="opacity:0.71506898;stroke-width:1.03868628;filter:url(#e)"
         d="M 14.027344 0 L 14.042969 42 L 77.720703 42 C 78.272786 42 78.802734 41.780971 79.193359 41.392578 L 113.38867 7.3925781 C 113.7793 7.0041853 114 6.476663 114 5.9277344 L 114 0 L 14.027344 0 z "
         id="path2738" />
      <path
         style="opacity:0.83561599;stroke-width:1.03868628;filter:url(#e)"
         d="M 14.027344 0 L 14.042969 42 L 77.720703 42 C 78.272786 42 78.802734 41.780971 79.193359 41.392578 C 93.044319 32.888732 104.33957 21.43703 113.38867 7.3925781 C 113.7793 7.0041853 114 6.476663 114 5.9277344 L 114 0 L 14.027344 0 z "
         id="path2742" />
      <path
         style="fill:url(#radialGradient2760)"
         d="M 16 0 L 16 40 L 77.171875 40 C 77.701875 40 78.210938 39.789062 78.585938 39.414062 L 111.41406 6.5859375 C 111.78906 6.2109375 112 5.701875 112 5.171875 L 112 0 L 16 0 z "
         id="path2744" />
      <path
         style="fill:url(#radialGradient2762)"
         d="M 23.900391 0 L 24 31.017578 C 24 31.559548 24.43924 32 24.978516 32 L 76.892578 32 C 77.149982 32 77.401942 31.896491 77.583984 31.712891 L 103.71289 5.4804688 C 103.89592 5.2968687 104 5.0453274 104 4.7871094 L 104 0 L 23.900391 0 z "
         id="path2746" />
      <g
         id="g2756"
         transform="translate(2e-6,-80)">
        <path
           id="path2748"
           d="M 111.414,86.586 C 111.664,86.336 85.035,85 80,85 c -1.654,0 -3,1.346 -3,3 0,5.035 1.336,31.664 1.586,31.414 z"
           inkscape:connector-curvature="0"
           style="opacity:0.90684904;filter:url(#i)" />
        <path
           id="path2750"
           d="M 111.414,86.586 C 111.789,86.211 89.444,86 80,86 c -1.103,0 -2,0.897 -2,2 0,9.444 0.211,31.789 0.586,31.414 z"
           inkscape:connector-curvature="0"
           style="opacity:0.2;filter:url(#h)" />
        <path
           id="path2752"
           d="M 111.414,86.586 C 111.653,86.347 89.807,87 80,87 c -0.553,0 -1,0.447 -1,1 0,9.807 -0.653,31.653 -0.414,31.414 z"
           style="opacity:0.1;fill:url(#linearGradient2764);filter:url(#g)"
           inkscape:connector-curvature="0" />
        <path
           id="path2754"
           d="m 78.586,119.414 c 0,0 11.914,-9.914 17.414,-15.414 5.5,-5.5 15.414,-17.414 15.414,-17.414 0,0 -21.164,1.414 -31.414,1.414 0,10.25 -1.414,31.414 -1.414,31.414 z"
           style="fill:url(#linearGradient2766)"
           inkscape:connector-curvature="0" />
      </g>
    </g>
    <g
       id="g2873">
      <path
         sodipodi:nodetypes="cccc"
         style="fill:url(#linearGradient944);stroke:none;stroke-width:0.6609996;fill-opacity:1"
         inkscape:connector-curvature="0"
         d="M 32,64 C 23.623302,69.43954 8.3766971,82.560459 0,88 V 40 c 8.3766972,5.439541 23.623303,18.560459 32,24 z"
         id="path132" />
      <rect
         style="opacity:1;fill:url(#linearGradient1002);fill-opacity:1;stroke:none;stroke-width:7.99986219;stroke-linecap:round;stroke-linejoin:round;stroke-miterlimit:4;stroke-dasharray:none;stroke-dashoffset:0;stroke-opacity:1"
         id="rect2692"
         width="24"
         height="16"
         x="40"
         y="56" />
      <rect
         y="56"
         x="72"
         height="16"
         width="24"
         id="rect2786"
         style="opacity:1;fill:url(#linearGradient1000);fill-opacity:1;stroke:none;stroke-width:7.99986219;stroke-linecap:round;stroke-linejoin:round;stroke-miterlimit:4;stroke-dasharray:none;stroke-dashoffset:0;stroke-opacity:1" />
      <rect
         style="opacity:1;fill:url(#linearGradient998);fill-opacity:1;stroke:none;stroke-width:7.99986219;stroke-linecap:round;stroke-linejoin:round;stroke-miterlimit:4;stroke-dasharray:none;stroke-dashoffset:0;stroke-opacity:1"
         id="rect2788"
         width="24"
         height="16"
         x="104"
         y="56" />
      <path
         sodipodi:type="inkscape:offset"
         inkscape:radius="-8"
         inkscape:original="M 0 40 L 0 88 C 8.3766971 82.560459 23.623302 69.43954 32 64 C 23.623303 58.560459 8.3766972 45.439541 0 40 z "
         style="fill:#bfd9ff;fill-opacity:1;stroke:none;stroke-width:0.6609996"
         id="path946"
         d="M 8,56.052734 V 71.947266 C 11.497188,69.201905 14.765701,66.715245 18.330078,64 14.765701,61.284755 11.497188,58.798095 8,56.052734 Z" />
    </g>
  </g>
</svg>
